X: 496
T: Tan qinglang
L: 1/8
M: 2/4
K: F
d2f d [I:setbarnb 1]| 
c d c A | 
c A G F | 
G4 | 
c A G F | 
G2z2 | 
A cd2 | 
d cA2 | 
c E G A | 
D4 | 
G> A G F | 
G> A G F | 
D D F D | 
C4 |]

@@@ Tune index: 9370
